X: 28753
T: My Home Town
R: waltz
M: 3/4
K: Dmajor
|:A de|f3 a f/>e/d|B3 d cB|A2 d2 d/>e/f|e3 a ag|
f3 a f/>e/d|B3 d cB|A2 d/>e/f e>d|d3:|
|:A d/>e/f|g2 g2 fe|f2 e2 a>f|e2 ed fA|B3 A A>B|
d3 a f/>e/d|B3 d cB|A2 d/>e/f e>d|d3:|

